svg/business/filter_3_fill.svg

<?xml version="1.0" encoding="UTF-8"?>
<svg width="24px" height="24px" viewBox="0 0 24 24" version="1.1" xmlns="http://www.w3.org/2000/svg" xmlns:xlink="http://www.w3.org/1999/xlink">
    <title>filter_3_fill</title>
    <g id="页面-1" stroke="none" stroke-width="1" fill="none" fill-rule="evenodd">
        <g id="Business" transform="translate(-816.000000, -240.000000)">
            <g id="filter_3_fill" transform="translate(816.000000, 240.000000)">
                <path d="M24,0 L24,24 L0,24 L0,0 L24,0 Z M12.5934901,23.257841 L12.5819402,23.2595131 L12.5108777,23.2950439 L12.4918791,23.2987469 L12.4918791,23.2987469 L12.4767152,23.2950439 L12.4056548,23.2595131 C12.3958229,23.2563662 12.3870493,23.2590235 12.3821421,23.2649074 L12.3780323,23.275831 L12.360941,23.7031097 L12.3658947,23.7234994 L12.3769048,23.7357139 L12.4804777,23.8096931 L12.4953491,23.8136134 L12.4953491,23.8136134 L12.5071152,23.8096931 L12.6106902,23.7357139 L12.6232938,23.7196733 L12.6232938,23.7196733 L12.6266527,23.7031097 L12.609561,23.275831 C12.6075724,23.2657013 12.6010112,23.2592993 12.5934901,23.257841 L12.5934901,23.257841 Z M12.8583906,23.1452862 L12.8445485,23.1473072 L12.6598443,23.2396597 L12.6498822,23.2499052 L12.6498822,23.2499052 L12.6471943,23.2611114 L12.6650943,23.6906389 L12.6699349,23.7034178 L12.6699349,23.7034178 L12.678386,23.7104931 L12.8793402,23.8032389 C12.8914285,23.8068999 12.9022333,23.8029875 12.9078286,23.7952264 L12.9118235,23.7811639 L12.8776777,23.1665331 C12.8752882,23.1545897 12.8674102,23.1470016 12.8583906,23.1452862 L12.8583906,23.1452862 Z M12.1430473,23.1473072 C12.1332178,23.1423925 12.1221763,23.1452606 12.1156365,23.1525954 L12.1099173,23.1665331 L12.0757714,23.7811639 C12.0751323,23.7926639 12.0828099,23.8018602 12.0926481,23.8045676 L12.108256,23.8032389 L12.3092106,23.7104931 L12.3186497,23.7024347 L12.3186497,23.7024347 L12.3225043,23.6906389 L12.340401,23.2611114 L12.337245,23.2485176 L12.337245,23.2485176 L12.3277531,23.2396597 L12.1430473,23.1473072 Z" id="MingCute" fill-rule="nonzero"></path>
                <path d="M3,6 C3,5.19711 3.43749,4.55194 3.96527,4.08401 C4.49422,3.61504 5.20256,3.2384 5.99202,2.94235 C7.57833,2.34749 9.70269,2 12,2 C14.2973,2 16.4217,2.34749 18.008,2.94235 C18.7974,3.2384 19.5058,3.61504 20.0347,4.08401 C20.5625,4.55194 21,5.19711 21,6 C21,10.6437 18.1305,14.6518 14.1095,15.7239 C14.0634,15.7362 14.0294,15.7611 14.0116,15.7825 C14.0034,15.7921 14.0001,15.8002 14.0001,15.8002 L14,19.8048 C14,20.3784 13.6096,20.8784 13.0532,21.0175 L11.5532,21.3925 C10.7642,21.5897 10,20.993 10,20.1798 L10,15.8003 C10,15.8003 9.99656,15.7921 9.98844,15.7825 C9.97056,15.7611 9.93659,15.7362 9.89049,15.7239 C5.86947,14.6518 3,10.6437 3,6 Z M5,6 C5,5.41522 6.3006,4.96264 6.69427,4.81501 C8.0034,4.32409 9.87903,4 12,4 C14.121,4 15.9966,4.32409 17.3057,4.81501 C17.6994,4.96264 19,5.41522 19,6 C19,6.58478 17.6994,7.03736 17.3057,7.18499 C15.9966,7.67591 14.121,8 12,8 C9.87903,8 8.0034,7.67591 6.69427,7.18499 C6.3006,7.03736 5,6.58478 5,6 Z" id="形状" fill="#09244B"></path>
            </g>
        </g>
    </g>
</svg>

<svg xmlns="http://www.w3.org/2000/svg" width="24" height="24"><g fill="none" fill-rule="evenodd"><path d="M24 0v24H0V0zM12.593 23.258l-.011.002-.071.035-.02.004-.014-.004-.071-.035c-.01-.004-.019-.001-.024.005l-.004.01-.017.428.005.02.01.013.104.074.015.004.012-.004.104-.074.012-.016.004-.017-.017-.427c-.002-.01-.009-.017-.017-.018m.265-.113-.013.002-.185.093-.01.01-.003.011.018.43.005.012.008.007.201.093c.012.004.023 0 .029-.008l.004-.014-.034-.614c-.003-.012-.01-.02-.02-.022m-.715.002a.023.023 0 0 0-.027.006l-.006.014-.034.614c0 .012.007.02.017.024l.015-.002.201-.093.01-.008.004-.011.017-.43-.003-.012-.01-.01z"/><path fill="#09244B" d="M3 6c0-.803.437-1.448.965-1.916.53-.469 1.238-.846 2.027-1.142C7.578 2.347 9.702 2 12 2c2.297 0 4.422.347 6.008.942.79.296 1.498.673 2.027 1.142C20.562 4.552 21 5.197 21 6c0 4.644-2.87 8.652-6.89 9.724a.195.195 0 0 0-.098.059c-.009.01-.012.017-.012.017v4.005a1.25 1.25 0 0 1-.947 1.212l-1.5.375A1.25 1.25 0 0 1 10 20.18V15.8s-.003-.008-.012-.018a.196.196 0 0 0-.098-.058C5.87 14.652 3 10.644 3 6m2 0c0-.585 1.3-1.037 1.694-1.185C8.004 4.325 9.88 4 12 4s3.997.324 5.306.815C17.699 4.963 19 5.415 19 6c0 .585-1.3 1.037-1.694 1.185C15.996 7.675 14.12 8 12 8s-3.997-.324-5.306-.815C6.301 7.037 5 6.585 5 6"/></g></svg>
